X: 5
T: The Walls Of Liscarrol
R: jig
M: 6/8
L: 1/8
K: Dmix
|:d|dcA AGE | GEE D2E | GEE cEE | GAB cde |
dcA AGE | GEE D2E | GEE cEE | D3 D2:||
|:dB/c/d ecA | dB/c/d ecA | GEE cEE | GAB cde |
dB/c/d ecA | dB/c/d ecA | GEE cEE |D3 D3 |
|:dB/c/d ecA | dB/c/d ecA | GEE cEE | GAB cde
dcA AGE | GEE D2E | GEE cEE |D3 D3 |


Tune 232	Setting 12930

